X:1
T:Chilton, CM
T:Chilton, CM
T:Samuel Sebastien Wesley, 1864
T:Public Domain Courtesy of the Cyber Hymnal™
C:Samuel Sebastien Wesley, 1864
Z:Public Domain
Z:Courtesy of the Cyber Hymnal™
%%score ( 1 2 ) ( 3 4 )
L:1/8
Q:1/4=108
M:4/4
K:F
V:1 treble 
V:2 treble 
V:3 bass 
V:4 bass 
V:1
 [CF]2 | [FA]2 [EG]2 F2 [Fd]2 | [Fc]2 [EB]2 [FA]2 [Gc]2 | [Af]2 [Ad]2 [FA]2 =B2 | [Ec]6 [Ec]2 | %5
 F2 F2 [DB]2 [Fd]2 | [Gc]2 c2 [DB]2 [Fd]2 | [Ec]2 [FB]2 [FA]2 [EG]2 | F6 |] %9
V:2
 x2 | x4 F2 x2 | x8 | x6 (FG) | x8 | F2 F2 x4 | x2 (F_E) x4 | x8 | F6 |] %9
V:3
 [F,A,]2 | [F,C]2 [C,B,]2 [D,A,]2 B,A, | [C,G,]2 [C,C]2 [F,C]2 [E,C]2 | [D,D]2 F2 (FE) [G,D]2 | %4
 [C,C]6 [A,,C]2 | [D,A,]2 [A,C]2 [G,B,]2 [D,B,]2 | [_E,B,]2 [F,A,]2 [B,,B,]2 (B,A,) | %7
 [C,G,]2 [D,F,]2 [C,C]2 (CB,) | [F,A,]6 |] %9
V:4
 x2 | x6 B,,2 | x8 | x2 (D,E,) F,2 x2 | x8 | x8 | x6 B,,2 | x6 C,2 | x6 |] %9

